X: 26
T: Lady Walpole's Reel  (A)
O: Howe 1867
R: reel
M: C|
L: 1/8
N: Originally in Bb
Z: Transcribed to abc by Mary Lou Knack; slightly modified by John Chambers
B: Howe "1000 Jigs and Reels", c. 1867; pg. 80
B: White's Unique Collection of Jigs, Reels, etc. Boston: White-Smith Music Publishing Co., 1896
B: New England Fiddler's Repertoire
K: A
E2\
| "A"A2c2 "E7"cdBc \
| "A"A2E2 "E7"EFED \
| "A"CEAE "D"DCDF \
| "E7"EFED "A"C2A,2 |
| "A"AEcA     ecfe \
|     agfe     dcBA \
|  "E"GBeB "B7"AGAc \
| "B7"BAGF "E"E2 :|
|: e2 \
| "A"eaec     AcAE \
| "D"DCDE     FEDC \
| "Bm"B,2fe     dcBA \
|  "E"GABG "E7"E2 (3efg |
| "A"aece "D"fdBd \
| "A"ceAc  "E"BGE2 \
| "E7"efed     cBAG \
| "A"A2c2     A2 :|

%%sep 2 1 500

